X:1
T:The Maple Leaf Forever
T:Alexander Muir (arr. Chris Haddlesey)
%%score 1 2 3 4
L:1/8
Q:1/4=105
M:4/4
K:Bb
V:1 tenor nm="Trombone" snm="Trb."
V:2 bass nm="Trombone" snm="Trb."
V:3 bass nm="Trombone" snm="Trb."
V:4 bass nm="Bass Trombone" snm="B. Trb."
V:1
!mp!"^Moderato con spirito" F2 | B,2 D2 F3 F | (B2 G2) B2 BA |!<(! F3 =E (F2 E2)!<)! | %4
!>(! F2 G2 FGFE!>)! | D2 D2 F3 (F | B2) G2 =E4 | (F2 G2) A2 (BA) | A6!p! A2 | B2 BG F3 F | %10
 E2 G2 D3 D |!<(! E2 E2 G3 (G!<)! | G)F- F2!mf! dcBA | (B2 F2) D4 | E2 (G2 D3) D | (E2 F2) B3 (A | %16
 F)F- F4!mp! F2 | (B,2 D2) F3 F | (B2 G2) B2 B2 |!<(! (A2 B2) A3 (B!<)! | B)A- A4!f! A2 | %21
 d2 B2 F2 F2 | (E2 G2) D3 D | (E2 G2) B2 A2 | (FF-) F4 z2 |] %25
V:2
!mf! F,2 | D,2 F,2 D3 B, | (G,2 B,2) F,4 |!<(! A,3 B, (C2 B,2)!<)! |!>(! (A,2 G,2) F,3 E,!>)! | %5
 D,2 F,2 B,2 (B,2 | D2) B,2 G,2 (A,B,) | (C2 B,2) A,2 (G,F,) | F,6!mp! F,2 | G,2 F,2 B,3 F, | %10
 G,2 B,2 F,3 F, |!<(! G,2 G,2 E3 (D!<)! | D)C- C4!f! F,2 | (F2 D2) (B,2 A,2) | G,2 (B,2 F,3) F, | %15
 (G,2 E2) D3 (C | E)D- D4!mf! F,2 | (D,2 F,2) B,3 F, | (G,2 B,2) F,3 F, |!<(! (F,2 F,2) E3 (D!<)! | %20
 D)C- C4!f! F,2 | F2 D2 B,2 B,2 | (G,2 B,2) F,3 F, | (G,2 E2) D3 (C | E)D- D4 z2 |] %25
V:3
!mf! F,2 | D,2 F,2 F,3 F, | (E,2 G,2) D,4 |!<(! F,3 G, (A,2 B,2)!<)! |!>(! (C2 C2) F,G,F,E,!>)! | %5
 D,B,,D,F, B,F,(B,C) | (D2 B,2) G,2 (A,B,) | (!>!C!>!C)DB, A,C(G,F,) | F,CA,C F2!mp! z2 | %9
 z D,F,B, DB,F,D, | E,E,G,B, DB,F,D, |!<(! G,2 G,2 C3 (B,!<)! | F2) F2!f! FEDC | (D2 B,2) F,4 | %14
 E,2 (G,2 B,3) D | (E2 C2) F4 | B,2 F,2 B,,2!mf! F,2 | (D,2 F,2) B,3 F, | E,F,G,A, B,3 B, | %19
!<(! (E2 D2) C3 (B,!<)! | F)=EFG!f! F_EDC | B,2 B,2 D2 B,2 | E,F,G,A, B,3 D | (E2 C2) F3 (F | %24
 B,2) F,2 B,,2 z2 |] %25
V:4
[K:C]!mf! F,,2 | D,,2 F,,2 F,,4 | (G,,2 G,,2) F,,4 |!<(! C,,3 C,, (C,,2 C,,2)!<)! | %4
!>(! (F,,2 E,,2) F,,2 _E,,2!>)! | D,,4 D,,2 (D,,2 | D,,2) G,,2 G,,2 (F,,G,,) | %7
 (A,,2 G,,2) F,,2 (E,,F,,) | F,,6!mp! _E,,2 | D,,2 D,,2 D,,4 | _E,,2 E,,2 D,,4 | %11
!<(! _E,,2 E,,2 E,,4!<)! | D,,C,,- C,,4!f! F,,2 | F,,4 (F,,2 D,,2) | _B,,,2 (B,,,2 B,,,4) | %15
 (_E,,2 E,,2) F,,3 (E,, | C,,)_B,,,- B,,,4!mf! D,,2 | (D,,2 D,,2) D,,4 | _E,,4 D,,3 D,, | %19
!<(! (C,,2 D,,2) F,,4!<)! | D,,C,,- C,,4!f! C,,2 | D,,2 D,,2 D,,4 | (_E,,2 E,,2) D,,4 | %23
 (_E,,2 E,,2) F,,2 E,,2 | (C,,_B,,,-) B,,,4 z2 |] %25

